resources/haticons/SVG/nintendoswitch.svg

<!-- Generated by IcoMoon.io -->
<svg version="1.1" xmlns="http://www.w3.org/2000/svg" width="24" height="24" viewBox="0 0 24 24">
<title>nintendoswitch</title>
<path fill="#e60012" d="M14.176 24h3.674c3.376 0 6.15-2.774 6.15-6.15v-11.7c0-3.375-2.774-6.15-6.15-6.15h-3.75c-0.074 0-0.15 0.074-0.15 0.15v23.7c-0.001 0.076 0.075 0.15 0.226 0.15zM18.75 10.801c1.351 0 2.399 1.125 2.399 2.398 0 1.352-1.125 2.4-2.399 2.4-1.35 0-2.4-1.049-2.4-2.4-0.075-1.349 1.050-2.398 2.4-2.398zM11.4 0h-5.25c-3.375 0-6.15 2.775-6.15 6.15v11.7c0 3.376 2.775 6.15 6.15 6.15h5.25c0.074 0 0.15-0.074 0.15-0.149v-23.701c0.001-0.076-0.075-0.15-0.15-0.15zM9.676 22.051h-3.526c-2.326 0-4.201-1.875-4.201-4.201v-11.7c0-2.326 1.875-4.201 4.201-4.201h3.45zM3.75 7.199c0 1.275 0.975 2.25 2.25 2.25s2.25-0.975 2.25-2.25c0-1.273-0.975-2.25-2.25-2.25s-2.25 0.977-2.25 2.25z"></path>
</svg>

<svg xmlns="http://www.w3.org/2000/svg" width="24" height="24"><path fill="#e60012" d="M14.176 24h3.674c3.376 0 6.15-2.774 6.15-6.15V6.15C24 2.775 21.226 0 17.85 0H14.1c-.074 0-.15.074-.15.15v23.7c-.001.076.075.15.226.15zm4.574-13.199c1.351 0 2.399 1.125 2.399 2.398 0 1.352-1.125 2.4-2.399 2.4-1.35 0-2.4-1.049-2.4-2.4-.075-1.349 1.05-2.398 2.4-2.398zM11.4 0H6.15C2.775 0 0 2.775 0 6.15v11.7C0 21.226 2.775 24 6.15 24h5.25c.074 0 .15-.074.15-.149V.15c.001-.076-.075-.15-.15-.15zM9.676 22.051H6.15a4.194 4.194 0 0 1-4.201-4.201V6.15A4.194 4.194 0 0 1 6.15 1.949H9.6zM3.75 7.199c0 1.275.975 2.25 2.25 2.25s2.25-.975 2.25-2.25c0-1.273-.975-2.25-2.25-2.25s-2.25.977-2.25 2.25z"/></svg>
